X:167
T:Dampier
C:Walsh, 1718
N:Published by Henry Playford in 1698 as "Damme" with slight differences in the tune.
L:1/8
M:4/4
S:Colin Hume's website,  colinhume.com  - chords can also be printed below the stave.
Q:1/4=135
K:C
P:A
|: "C"c2 "G/D"B2 "C/E"c2 "F"B>A | "G"G>FE>F "C"G2C2 | "G"D>EF>G "F"A>B ((3cBA) | "G7"G2B2 "C"c2C2 :|
P:B
|: "C"c>de2 "C/B"c>de2 | "C/A"c>de>f "G"d>BA>G | "C"c>de2 "C/B"c>de2 | "C/A"c>de>f "G"g2-g>a |
"C"g>fe>d "Am"c>BA>e | "Dm"f2A>e "/"f2-f>e | "G"f>ed>c "/"B>A ((3GFE) | "F"F2 "G"G2 "C"c4 :|

